archdroid-icon-theme/Archdroid-LightBlue/places/scalable/folder-debian-color-debianred.svg

<?xml version="1.0" encoding="UTF-8" standalone="no"?>
<svg
   xmlns:dc="http://purl.org/dc/elements/1.1/"
   xmlns:cc="http://creativecommons.org/ns#"
   xmlns:rdf="http://www.w3.org/1999/02/22-rdf-syntax-ns#"
   xmlns:svg="http://www.w3.org/2000/svg"
   xmlns="http://www.w3.org/2000/svg"
   xmlns:sodipodi="http://sodipodi.sourceforge.net/DTD/sodipodi-0.dtd"
   xmlns:inkscape="http://www.inkscape.org/namespaces/inkscape"
   fill="#03A9F4"
   width="48"
   height="48"
   viewBox="0 0 48 48"
   id="svg2"
   version="1.1"
   inkscape:version="0.91 r13725"
   sodipodi:docname="folder-.svg">
  <metadata
     id="metadata10">
    <rdf:RDF>
      <cc:Work
         rdf:about="">
        <dc:format>image/svg+xml</dc:format>
        <dc:type
           rdf:resource="http://purl.org/dc/dcmitype/StillImage" />
        <dc:title />
      </cc:Work>
    </rdf:RDF>
  </metadata>
  <defs
     id="defs8" />
  <sodipodi:namedview
     pagecolor="#ffffff"
     bordercolor="#666666"
     borderopacity="1"
     objecttolerance="10"
     gridtolerance="10"
     guidetolerance="10"
     inkscape:pageopacity="0"
     inkscape:pageshadow="2"
     inkscape:window-width="1366"
     inkscape:window-height="713"
     id="namedview6"
     showgrid="false"
     inkscape:zoom="7.795207743958533"
     inkscape:cx="10.1712523761748"
     inkscape:cy="13.50907785558362"
     inkscape:window-x="0"
     inkscape:window-y="30"
     inkscape:window-maximized="1"
     inkscape:current-layer="svg2"
     inkscape:snap-bbox="true"
     inkscape:bbox-paths="true"
     inkscape:bbox-nodes="true" />
  <path
     style="fill:#d70a53;fill-opacity:1"
     d="M 8 8 C 5.79 8 4.01953125 9.789999999999999 4.01953125 12 L 4 36 C 4 38.21 5.790000000000001 40 8 40 L 40 40 C 42.21 40 44 38.21 44 36 L 44 16 C 44 13.79 42.21 12 40 12 L 24 12 L 20 8 L 8 8 z M 31.1328125 16 C 30.89510803543439 16.0540321242186 30.56780812602578 16.0175469337807 30.34375 16.099609375 L 30.2109375 16.080078125 C 30.51484514748188 16.0407987992029 30.82300373314954 16.0260018072178 31.1328125 16 z M 29.779296875 16.142578125 C 29.62033547200888 16.23146373548925 29.46345638905665 16.30168954118797 29.314453125 16.40625 C 29.91813844366808 16.26223477144649 29.89064416687993 16.46345095822814 30.505859375 16.3828125 C 30.289542365007 16.41457080147345 30.02839002664841 16.50047417650622 30.0703125 16.533203125 C 30.76037464616336 16.61323705643641 30.86492566837092 16.32039400777058 31.50390625 16.533203125 L 31.46484375 16.34375 C 32.35222457505024 16.66425454570601 32.53748892819767 16.6095404647362 33.501953125 17.12109375 C 33.84089866873284 17.13750623824387 33.87498105475593 16.91289488227728 34.38671875 17.12109375 C 34.47671082037086 17.27913310308979 34.36604023220674 17.30765718501623 34.994140625 17.681640625 C 35.06421641750189 17.65379471797951 34.86937931346469 17.47737995486566 34.71484375 17.3359375 C 35.97786770485644 18.01050920782083 37.35092059479134 19.45004221980056 37.76953125 20.990234375 C 37.37766004193023 20.26771607230947 37.72836928559573 21.3593482389423 37.59375 21.302734375 C 37.76838625131393 21.77390187458507 37.9114832094713 22.26097026878907 38 22.763671875 C 37.88400612241135 22.35077792917965 37.63082159256417 21.35519058627391 37.1875 20.712890625 C 37.15135564386743 21.12744426064276 36.61572889629475 20.42561445261355 36.908203125 21.337890625 C 37.13115479114418 21.66097691042979 36.95374475440047 21.01168482144503 37.228515625 21.5859375 C 37.23275705454618 21.85886427079683 37.337951026472 22.12864814806278 37.3984375 22.484375 C 37.30401959010273 22.46888456165749 37.1882943676006 22.09215193624717 37.119140625 22.197265625 C 37.21448058479864 22.64464423713049 37.3718917913931 22.8778091186701 37.431640625 22.912109375 C 37.40102856827552 22.98697982698886 37.321754139428 22.84220790755758 37.31640625 23.146484375 C 37.3529194260931 23.84705789003862 37.5126513530506 23.5506061685715 37.587890625 23.583984375 C 37.511544893169 23.92864662812113 37.20314610629853 24.33467187845769 37.35546875 24.927734375 C 37.31176358467646 24.74811905421884 37.2250685630544 24.56864791178749 37.16015625 24.3984375 C 37.10003859643262 24.90482730581629 37.27289435497999 25.00347108566766 37.0390625 25.6171875 C 37.20761322196469 25.06395755919561 37.19002699301086 24.56421688573035 37.03125 24.8046875 C 37.10151020248215 25.5910116558633 36.4095045480111 26.19423694319711 36.484375 26.69140625 L 36.28125 26.4140625 C 35.73594968834715 27.20462808540949 36.26910156033894 26.85025513408911 35.8984375 27.44921875 C 36.03453206543791 27.21391161517785 35.82668825896232 27.35240992148745 36.00390625 27.0859375 C 35.88625268258894 27.09276066926992 35.47797691014163 27.58669181605796 35.10546875 27.876953125 C 33.6403314567697 29.05146028932773 31.89247118882198 29.20479185731969 30.19921875 28.572265625 C 30.13338438704428 28.62629774921855 30.50058611398612 28.91332042991729 30.771484375 29.052734375 C 31.41618166601741 29.29117647948673 32.14663485642531 29.3024571477308 32.720703125 29.28125 C 31.47962395779546 29.80017968447452 29.11101264706696 28.75291947651769 28.3359375 27.365234375 C 28.51131139123499 27.4034072409155 29.1109553431063 28.34181798129852 29.560546875 28.494140625 C 29.29481209343363 28.2811470977903 29.08893300961698 28.00929664016541 28.8984375 27.73046875 C 29.25748373158203 28.14317828584007 29.69499079102661 28.47980451389529 30.171875 28.703125 C 30.1412629432755 28.58713112241134 30.30402722582846 28.56443201870147 30.078125 28.412109375 C 28.64212448365205 27.3121038427006 27.79338788651179 26.37731056340706 28.087890625 24.212890625 C 28.30678527157826 24.04765928267976 28.3648547137496 23.14438811615985 28.8671875 22.828125 C 29.17330806724508 22.1517091923765 30.09175775991434 21.5291623133425 31.072265625 21.513671875 C 32.07324299789544 21.45853329089984 32.91746951040303 22.04844158439291 33.341796875 22.603515625 C 32.56930346765679 21.88357906203319 31.30499206460804 21.66339873212375 30.2265625 22.197265625 C 29.12379081799656 22.6936972918818 28.4691131652014 23.90801125938186 28.564453125 25.1171875 C 28.6053921406195 25.05688543645232 28.6423775071113 25.09450017403691 28.662109375 24.9453125 C 28.62836234861093 27.29543328853707 31.19322762271332 29.0175617370037 33.041015625 28.1484375 L 33.064453125 28.197265625 C 33.81352646484913 27.9929393668629 33.71528521740784 27.82464505400907 34.205078125 27.48828125 C 34.16690525908449 27.56720872155477 33.87688263860715 27.767611765414 34.05078125 27.771484375 C 34.28922335448669 27.70823175176802 35.03256809914803 27.01670545519299 35.3984375 26.69140625 C 35.56625058204402 26.32940945873366 35.3085836650792 26.49418633130176 35.54296875 26.0390625 L 35.830078125 25.896484375 C 35.98900717293095 25.43682399998766 36.16565598778511 25.17699399631675 36.146484375 24.642578125 L 35.978515625 24.994140625 C 36.22451853867766 24.24930871469701 36.0825184237096 23.43940799497944 36.1171875 22.73828125 L 36.048828125 22.71875 C 35.98871047143259 20.9548685387353 34.46449491979318 19.07949842214211 33.107421875 18.4453125 C 31.9378937801395 17.90499125781438 30.13656092098954 17.81371029854824 29.3046875 18.220703125 C 29.41920609774652 18.11927763585253 29.87566668529976 18.0762367066337 29.73828125 17.998046875 C 28.43579355936618 18.12750268114822 28.72691125817166 18.45199224728917 27.728515625 18.70703125 C 27.45466680430183 18.97147516170451 28.52874393319979 18.49507247168154 27.951171875 18.837890625 C 27.41564529230134 18.98560301919476 27.16460989509377 18.74522860786601 26.37109375 19.56640625 C 26.44172277244271 19.68074043776665 26.87493102634527 19.22780766356013 26.513671875 19.681640625 C 25.76791791479567 19.5890668149054 24.15830235341712 21.38799312381285 23.81640625 21.984375 L 23.99609375 22.015625 C 23.70251306141315 22.75105200130932 23.3162287193764 23.21960080713944 23.263671875 23.66015625 C 23.18787937310979 24.7428272441542 22.8086003412161 26.71872539999678 23.333984375 27.326171875 L 23.283203125 27.833984375 C 23.35530742728485 27.97782415960914 23.4103767495897 28.12477751944371 23.5 28.259765625 L 23.3828125 28.267578125 C 23.9354892108636 30.01080566847461 23.975367833079 28.30079093872747 24.705078125 30.111328125 C 24.59922679632609 30.07573699880824 24.49401049350415 30.03632386772272 24.33984375 29.828125 C 24.32140275197317 29.98690199301086 24.56259206091983 30.46342933985837 24.8515625 30.8359375 L 24.73046875 30.974609375 C 24.8912742527938 31.26671478374472 25.03882258693778 31.33161503091173 25.150390625 31.43359375 C 24.54995172924697 31.10589721506354 25.70793954118796 32.51392846419912 25.8125 32.693359375 L 25.904296875 32.529296875 C 25.8910193564207 32.76552605972349 26.07301306170127 33.07091972028464 26.416015625 33.494140625 L 26.703125 33.482421875 C 26.82077856741104 33.71496286011812 27.2507786279206 34.1345650071113 27.51171875 34.154296875 L 27.337890625 34.380859375 C 27.9929148749124 34.58832060280165 27.65580352614933 34.65649283048573 28.4609375 34.94140625 L 28.298828125 34.654296875 C 28.70969356103741 35.01057695687804 28.83641505701726 35.32277635420315 29.416015625 35.595703125 C 30.21967431900852 35.87582188502729 30.32552478326065 35.76413963523705 31.150390625 36 C 30.45129238980351 35.9797149021705 29.62884858586359 35.98674999884743 29.076171875 35.7890625 C 25.30554100845751 34.76743120931454 21.85710214699319 30.34472665254394 22.109375 25.7890625 C 22.05128585621521 24.86664377869882 22.20048851356335 23.71396542543382 22.046875 23.484375 C 22.26245026693343 22.78251061509949 22.51329221374958 21.9266994460209 23.015625 20.908203125 C 22.97929623388718 20.83997143230079 23.09810780232864 21.10708255343279 23.353515625 20.671875 C 23.50842000842521 20.33163858640529 23.63478795589605 19.95760021962076 23.830078125 19.626953125 L 23.9296875 19.603515625 C 24.03019093924612 19.02004244743163 25.29074131515436 18.12434170679504 25.666015625 17.673828125 L 25.693359375 17.84765625 C 26.51232409737078 17.0797730921635 27.9712378779252 16.56387266577305 28.79296875 16.197265625 C 28.57720907308628 16.43607654944724 29.27548880890746 16.1731901817245 29.779296875 16.142578125 z M 30.27734375 16.2578125 C 30.86800891679882 16.2745938082044 30.82430544430126 16.3130544545383 30.630859375 16.35546875 L 30.623046875 16.37109375 L 30.5078125 16.3828125 L 30.630859375 16.35546875 C 30.65962733192183 16.31323886451861 30.45419292107714 16.2895310166061 30.27734375 16.2578125 z M 22.4765625 20.28125 C 22.47324312035519 20.47930631880797 22.80993644915125 20.08666552322874 22.568359375 20.630859375 C 22.11766138322465 20.94601603127824 22.5281972944751 20.75924066885499 22.4765625 20.28125 z M 22.109375 21.80078125 C 22.06972685424236 21.98519123026814 22.05108844389096 22.17548017909667 21.947265625 22.494140625 C 21.97750886176397 22.24463392169722 21.82243307070279 22.16757270075332 22.109375 21.80078125 z M 33.919921875 24.015625 C 33.96090699311459 24.01458769386099 33.9887584828591 24.11568715192617 33.96875 24.4140625 C 33.90900116639313 24.65434870428937 33.8606054683898 24.2664623365667 33.798828125 24.234375 C 33.82529095716847 24.12050183718442 33.87893675688541 24.01666230613901 33.919921875 24.015625 z M 37.54296875 25.021484375 C 37.4544519594713 25.70158838222887 37.2443744150746 26.37261171066765 36.91796875 26.986328125 C 37.21339353838955 26.40469904723432 37.4048861945502 25.77657963716184 37.494140625 25.142578125 L 37.54296875 25.021484375 z M 33.705078125 25.244140625 C 33.65436538042625 25.55247411200832 33.5098186788869 25.85067333414397 33.3125 26.123046875 C 33.33665770741514 25.88884620005947 32.76164552627151 26.22504652029893 33.427734375 25.38671875 C 33.36982964119584 25.62294793472348 32.81025437627934 26.2435427332671 33.4296875 25.853515625 C 33.54199317798329 25.6532463864288 33.6608197297356 25.46395732147961 33.705078125 25.244140625 z M 32.353515625 26.525390625 C 32.2568847953395 26.61722679517354 32.14879454221375 26.7113760499843 32.029296875 26.8046875 C 31.59667106129098 26.73811549712319 31.20377151545817 26.571016499507 31.53515625 26.56640625 C 31.81140240044166 26.5916704172967 32.08409264382826 26.591409397936 32.353515625 26.525390625 z M 28.171875 26.56640625 C 28.24822073183101 26.71928212364229 28.31638438733242 26.87257270363472 28.431640625 27 L 28.533203125 27.30078125 C 28.39397358989755 27.06602734511866 28.2449013521862 26.83509159125067 28.171875 26.56640625 z M 27.91796875 27.021484375 C 28.19144875073764 27.54945014850766 28.33897767140908 27.71098216179209 28.5390625 28.1015625 C 28.26097224975564 27.87031238474376 28.08888193669666 27.54969985835009 27.87109375 27.25390625 L 27.91796875 27.021484375 z "
     id="path4184" />
</svg>

<svg xmlns="http://www.w3.org/2000/svg" fill="#03A9F4" viewBox="0 0 48 48"><path d="m8 8c-2.21 0-3.98 1.79-3.98 4l-.02 24c0 2.21 1.79 4 4 4h32c2.21 0 4-1.79 4-4v-20c0-2.21-1.79-4-4-4h-16l-4-4h-12m23.13 8c-.238.054-.565.018-.789.1l-.133-.02c.304-.039.612-.054.922-.08m-1.354.143c-.159.089-.316.159-.465.264.604-.144.576.057 1.191-.023-.216.032-.477.118-.436.15.69.08.795-.213 1.434 0l-.039-.189c.887.321 1.073.266 2.037.777.339.016.373-.208.885 0 .09.158-.021.187.607.561.07-.028-.125-.204-.279-.346 1.263.675 2.636 2.114 3.055 3.654-.392-.723-.041.369-.176.313.175.471.318.958.406 1.461-.116-.413-.369-1.408-.813-2.051-.036.415-.572-.287-.279.625.223.323.046-.326.32.248.004.273.109.543.17.898-.094-.015-.21-.392-.279-.287.095.447.253.681.313.715-.031.075-.11-.07-.115.234.037.701.196.404.271.438-.076.345-.385.751-.232 1.344-.044-.18-.13-.359-.195-.529-.06.506.113.605-.121 1.219.169-.553.151-1.053-.008-.813.07.786-.622 1.39-.547 1.887l-.203-.277c-.545.791-.012.436-.383 1.035.136-.235-.072-.097.105-.363-.118.007-.526.501-.898.791-1.465 1.175-3.213 1.328-4.906.695-.066.054.301.341.572.48.645.238 1.375.25 1.949.229-1.241.519-3.61-.528-4.385-1.916.175.038.775.977 1.225 1.129-.266-.213-.472-.485-.662-.764.359.413.797.749 1.273.973-.031-.116.132-.139-.094-.291-1.436-1.1-2.285-2.035-1.99-4.199.219-.165.277-1.069.779-1.385.306-.676 1.225-1.299 2.205-1.314 1-.055 1.845.535 2.27 1.09-.772-.72-2.037-.94-3.115-.406-1.103.496-1.757 1.711-1.662 2.92.041-.06.078-.023.098-.172-.034 2.35 2.531 4.072 4.379 3.203l.023.049c.749-.204.651-.373 1.141-.709-.038.079-.328.279-.154.283.238-.063.982-.755 1.348-1.08.168-.362-.09-.197.145-.652l.287-.143c.159-.46.336-.719.316-1.254l-.168.352c.246-.745.104-1.555.139-2.256l-.068-.02c-.06-1.764-1.584-3.639-2.941-4.273-1.17-.54-2.971-.632-3.803-.225.115-.101.571-.144.434-.223-1.302.129-1.01.454-2.01.709-.274.264.8-.212.223.131-.536.148-.787-.093-1.58.729.071.114.504-.339.143.115-.746-.093-2.355 1.706-2.697 2.303l.18.031c-.294.735-.68 1.204-.732 1.645-.076 1.083-.455 3.059.07 3.666l-.051.508c.072.144.127.291.217.426l-.117.008c.553 1.743.593.033 1.322 1.844-.106-.036-.211-.075-.365-.283-.018.159.223.635.512 1.01l-.121.139c.161.292.308.357.42.459-.6-.328.558 1.08.662 1.26l.092-.164c-.013.236.169.542.512.965l.287-.012c.118.233.548.652.809.672l-.174.227c.655.207.318.276 1.123.561l-.162-.287c.411.356.538.668 1.117.941.804.28.91.168 1.734.404-.699-.02-1.522-.013-2.074-.211-3.771-1.022-7.219-5.444-6.967-10-.058-.922.091-2.075-.063-2.305.216-.702.466-1.558.969-2.576-.036-.068.082.199.338-.236.155-.34.281-.714.477-1.045l.1-.023c.101-.583 1.361-1.479 1.736-1.93l.027.174c.819-.768 2.278-1.284 3.1-1.65-.216.239.483-.024.986-.055m.498.115c.591.017.547.055.354.098l-.008.016-.115.012.123-.027c.029-.042-.177-.066-.354-.098m-7.801 4.02c-.003.198.333-.195.092.35-.451.315-.04.128-.092-.35m-.367 1.52c-.04.184-.058.375-.162.693.03-.25-.125-.327.162-.693m11.811 2.215c.041-.001.069.1.049.398-.06.24-.108-.148-.17-.18.026-.114.08-.218.121-.219m3.623 1.01c-.089.68-.299 1.351-.625 1.965.295-.582.487-1.21.576-1.844l.049-.121m-3.838.223c-.051.308-.195.607-.393.879.024-.234-.551.102.115-.736-.058.236-.617.857.002.467.112-.2.231-.39.275-.609m-1.352 1.281c-.097.092-.205.186-.324.279-.433-.067-.826-.234-.494-.238.276.025.549.025.818-.041m-4.182.041c.076.153.145.306.26.434l.102.301c-.139-.235-.288-.466-.361-.734m-.254.455c.273.528.421.689.621 1.08-.278-.231-.45-.552-.668-.848l.047-.232" fill="#d70a53"/></svg>
